!!!SOCIAL_FUNCTION:	unclassified songs
!!!PDT:	1909
!!!OTL: No_197_Song_of_We'nabo'jo.krn
!!!REG: Great_Lakes
!!!LANG: Non-Tone
!!!LING_GROUP: Algonquin
**kern	**kern
*staff2	*staff1
=1-	=1-
*clefF4	*clefF4
*k[f#c#]	*k[f#c#]
*M5/8	*M5/8
8GG/	8B\L
12GG^/	8B\
12r	.
.	8B\
12GG/	.
12GG^/	8d\
12r	.
.	8d\J
12GG/	.
=2	=2
3...r	8B\L
.	8B\
.	8B\J
.	4B\
=3	=3
3...r	8B\L
.	8B\
.	8B\
.	8d\
.	8d\J
=4||	=4||
*M4/8	*M4/8
2r	8B\
.	8B\
.	8B\
.	8B\
=5||	=5||
*M6/8	*M6/8
2.r	8B\L
.	8B\
.	8F#\J
.	4.B\
=6	=6
2.r	8B\L
.	8B\
.	8F#\J
.	4.B\
=7	=7
2.r	8B\L
.	8B\
.	8F#\J
.	4.B\
==	==
*-	*-
